X: 29243
T: New Land, The
R: waltz
M: 3/4
K: Fmajor
CDE|:F4FG|Ac3d2|c3AG2|F3G(3AGF|B3AGA|Bd3f2|
d3BG2|G3G(3AGF|A3FAF|A2c2f2|a3gf2|d3efg|
a3gf2|ge3c2|d4de|1 d3cAG:|2 d3efg||
|:a3gab|a2g2f2|B4Bc|B2d2f2|g3fga|g2f2e2|A4AB|A2c2e2|
f3efg|f2e2d2|G4GA|G2F2D2|cA3F2|GE3C2|D4DE|D6:|

